X:1
T:The Bedmaking
B:Martin Carthy: A Guitar in Folk Music
S:Marina Russell 
Z:The Hammonds 
F:http://www.folkinfo.org/songs
Q:1/4=140
M:2/4
L:1/16
K:Dmix
A2|A4d2d2|d6d2|c2 A6|A6B2|c4c2c2|
w:O Fa-ther he was a good old man He put me to
c4c2A2|B2A2 G2F2|E8|A2G2 E4|D6d2|
w:ser-vice when I was ve-ry young Mis-sus and me, we
d2A2 A2F2|E6F2|(G2F2) G2E2|^C4 E2G2|F4D4|D8|]
w:ne-ver could a-gree Be-cause_ that my mas-ter he would love me